Crule/apps/scalable/accessories-podcast.svg

<svg width="64" height="64" version="1.1" viewBox="0 0 64 64" xmlns="http://www.w3.org/2000/svg">
 <defs>
  <linearGradient id="linearGradient877" x1="-133.39" x2="-133.39" y1="135.31" y2="34.648" gradientTransform="matrix(.49622 0 0 .49622 98.269 -9.9505)" gradientUnits="userSpaceOnUse">
   <stop stop-color="#852ec0" offset="0"/>
   <stop stop-color="#d26ef7" offset="1"/>
  </linearGradient>
 </defs>
 <filter id="i" x="-.069933" y="-.054406" width="1.1399" height="1.1088" color-interpolation-filters="sRGB">
  <feGaussianBlur stdDeviation="1.9764485"/>
 </filter>
 <g transform="scale(3.7796)" shape-rendering="auto">
  <path d="m4.3693 0.52916c-2.1142 0-3.8402 1.7835-3.8402 3.9682v8.4675c0 2.1846 1.726 3.9682 3.8402 3.9682h8.1944c2.1142 0 3.8402-1.7835 3.8402-3.9682v-8.4675c0-2.1846-1.726-3.9682-3.8402-3.9682zm0.25704 0.52089h7.6808c1.8443 0 3.3291 1.5342 3.3291 3.44v7.9368c0 1.9058-1.4847 3.44-3.3291 3.44h-7.6808c-1.8443 0-3.3291-1.5342-3.3291-3.44v-7.9368c0-1.9058 1.4847-3.44 3.3291-3.44z" color="#000000" color-rendering="auto" dominant-baseline="auto" image-rendering="auto" opacity=".01" solid-color="#000000" stop-color="#000000" style="font-feature-settings:normal;font-variant-alternates:normal;font-variant-caps:normal;font-variant-east-asian:normal;font-variant-ligatures:normal;font-variant-numeric:normal;font-variant-position:normal;font-variation-settings:normal;inline-size:0;isolation:auto;mix-blend-mode:normal;shape-margin:0;shape-padding:0;text-decoration-color:#000000;text-decoration-line:none;text-decoration-style:solid;text-indent:0;text-orientation:mixed;text-transform:none;white-space:normal"/>
  <path d="m4.3587 0.79373c-1.9668 0-3.5639 1.6528-3.5639 3.6876v8.4996c0 2.0348 1.5971 3.6876 3.5639 3.6876h8.2162c1.9668 0 3.5644-1.6528 3.5644-3.6876v-8.4996c0-2.0348-1.5976-3.6876-3.5644-3.6876zm0.27222 0.25631h7.6718c1.8422 0 3.3251 1.5342 3.3251 3.44v7.9368c0 1.9058-1.483 3.44-3.3251 3.44h-7.6718c-1.8422 0-3.3251-1.5342-3.3251-3.44v-7.9368c0-1.9058 1.483-3.44 3.3251-3.44z" color="#000000" color-rendering="auto" dominant-baseline="auto" image-rendering="auto" opacity=".01" solid-color="#000000" stop-color="#000000" style="font-feature-settings:normal;font-variant-alternates:normal;font-variant-caps:normal;font-variant-east-asian:normal;font-variant-ligatures:normal;font-variant-numeric:normal;font-variant-position:normal;font-variation-settings:normal;inline-size:0;isolation:auto;mix-blend-mode:normal;shape-margin:0;shape-padding:0;text-decoration-color:#000000;text-decoration-line:none;text-decoration-style:solid;text-indent:0;text-orientation:mixed;text-transform:none;white-space:normal"/>
  <path d="m4.3097 1.0583c-1.8657 0-3.3751 1.5383-3.3751 3.439v8.4675c0 1.9007 1.57 3.439 3.4357 3.439h8.1996c1.8657 0 3.4274-1.5383 3.4274-3.439v-8.4675c0-1.9007-1.51-3.439-3.3756-3.439h-0.09688c1.794 0.086515 3.2138 1.5819 3.2138 3.4318v7.9368c0 1.9058-1.5059 3.44-3.3766 3.44h-7.7905c-1.8707 0-3.3766-1.5342-3.3766-3.44v-7.9368c0-1.8498 1.4199-3.3451 3.2138-3.4318z" color="#000000" color-rendering="auto" dominant-baseline="auto" image-rendering="auto" opacity=".03" solid-color="#000000" stop-color="#000000" style="font-feature-settings:normal;font-variant-alternates:normal;font-variant-caps:normal;font-variant-east-asian:normal;font-variant-ligatures:normal;font-variant-numeric:normal;font-variant-position:normal;font-variation-settings:normal;inline-size:0;isolation:auto;mix-blend-mode:normal;shape-margin:0;shape-padding:0;text-decoration-color:#000000;text-decoration-line:none;text-decoration-style:solid;text-indent:0;text-orientation:mixed;text-transform:none;white-space:normal"/>
  <path transform="scale(.26458)" d="m4 46.969v2.0312c0 6.6479 5.8957 12 12.544 12h30.961c6.6479 0 12.495-5.3521 12.495-12v-1.9922c-0.02117 7.1849-5.81 12.963-13 12.963h-29.998c-7.2032 0-13.002-5.7987-13.002-13.002z" color="#000000" color-rendering="auto" dominant-baseline="auto" image-rendering="auto" opacity=".03" solid-color="#000000" stop-color="#000000" style="font-feature-settings:normal;font-variant-alternates:normal;font-variant-caps:normal;font-variant-east-asian:normal;font-variant-ligatures:normal;font-variant-numeric:normal;font-variant-position:normal;font-variation-settings:normal;inline-size:0;isolation:auto;mix-blend-mode:normal;shape-margin:0;shape-padding:0;text-decoration-color:#000000;text-decoration-line:none;text-decoration-style:solid;text-indent:0;text-orientation:mixed;text-transform:none;white-space:normal"/>
  <path d="m1.0583 11.906v0.59234c0 1.9386 1.5729 3.4993 3.3318 3.4993h8.1603c1.7589 0 3.3243-1.5608 3.3243-3.4993v-0.58095c-0.0056 2.0952-1.5372 3.7801-3.4395 3.7801h-7.9368c-1.9058 0-3.44-1.691-3.44-3.7915z" color="#000000" color-rendering="auto" dominant-baseline="auto" image-rendering="auto" opacity=".05" solid-color="#000000" stop-color="#000000" style="font-feature-settings:normal;font-variant-alternates:normal;font-variant-caps:normal;font-variant-east-asian:normal;font-variant-ligatures:normal;font-variant-numeric:normal;font-variant-position:normal;font-variation-settings:normal;inline-size:0;isolation:auto;mix-blend-mode:normal;shape-margin:0;shape-padding:0;text-decoration-color:#000000;text-decoration-line:none;text-decoration-style:solid;text-indent:0;text-orientation:mixed;text-transform:none;white-space:normal"/>
 </g>
 <rect x="4" y="3.9686" width="56.002" height="56.002" rx="13.002" ry="13.002" fill="url(#linearGradient877)" stroke-width="3.7796"/>
 <path d="m32.005 11.458c-0.85136-3.51e-4 -1.7023 0.0228-2.1105 0.06928-5.0029 0.56931-9.0992 2.637-12.634 6.3774-2.3794 2.5175-4.0067 5.5542-4.8781 9.1032-0.28508 1.161-0.35957 1.669-0.42732 2.9212-0.06965 1.2876 0.0021 3.5156 0.14953 4.6394 0.21346 1.6285 0.85092 3.7128 1.7003 5.5596 1.5711 3.4164 4.1078 6.2906 7.3897 8.3747 1.0362 0.65794 3.1429 1.7376 4.0235 2.0618 0.26621 0.09802 0.31358 0.09739 0.39782-4e-3 0.15612-0.18811-0.04878-1.9214-0.28053-2.3732-0.14882-0.29012-0.29891-0.40596-0.94381-0.72776-3.5284-1.7606-6.3338-4.6125-8.1216-8.2556-0.77167-1.5723-1.3004-3.1421-1.4788-4.3918-0.20114-1.409-0.23622-3.7432-0.08299-5.5393 0.13699-1.6057 0.60102-3.192 1.4534-4.9682 1.2938-2.6958 3.1454-4.9562 5.5075-6.7253 2.2998-1.7222 5.0302-2.8706 7.7217-3.247 0.70111-0.09805 3.7131-0.13495 4.6346-0.05693 2.105 0.17823 3.891 0.7089 5.9874 1.7792 3.7758 1.9279 6.8052 5.2753 8.3921 9.2734 0.84844 2.1377 1.0712 3.4929 1.0714 6.5188 1.14e-4 2.4179-0.12974 3.3806-0.6763 5.0168-0.81896 2.4514-2.1097 4.6606-3.8355 6.564-1.3795 1.5214-3.4356 3.0901-5.181 3.9535-0.79743 0.39442-0.94738 0.52669-1.105 0.97329-0.2045 0.57958-0.34104 2.0562-0.20303 2.1942 0.11454 0.11454 0.53845-0.04257 1.7703-0.65436 1.2325-0.61214 2.9031-1.5847 3.673-2.1386 3.5443-2.55 6.3561-6.6126 7.5222-10.868 0.48144-1.7566 0.57869-2.4969 0.62142-4.7334 0.03583-1.8746-0.03444-3.2487-0.21194-4.1401-0.67997-3.4149-1.9914-6.3189-3.9665-8.7841-1.0202-1.2735-2.3121-2.579-3.4404-3.4761-3.0423-2.4188-6.3501-3.7723-10.324-4.2251-0.41072-0.0468-1.2626-0.07097-2.1139-0.07134zm-0.0583 6.6866c-1.5067 0.0075-2.9733 0.19414-3.9473 0.52058-2.0797 0.69694-4.1379 1.9965-5.6907 3.5941-1.4603 1.5022-2.4981 3.2087-3.1599 5.1954-0.47177 1.4163-0.61854 2.6062-0.56654 4.588 0.01798 0.68592 0.07217 1.4882 0.12278 1.8121 0.39674 2.5398 2.0577 5.6281 4.031 7.4964 0.27003 0.2556 0.58088 0.5257 0.69138 0.60018 0.11048 0.07446 0.41319 0.28688 0.67287 0.4719s0.4989 0.32775 0.53155 0.31689c0.03266-0.01087 0.0759-0.09336 0.09534-0.18314 0.01942-0.08978 0.0382-0.72994 0.04184-1.4226l0.0062-1.2593-0.64816-0.78259c-1.3818-1.6678-2.1564-3.1034-2.5975-4.8143-1.0808-4.1917 0.44616-8.5638 3.9473-11.302 1.6539-1.2936 3.6385-2.0227 6.1536-2.2607 1.2734-0.12048 3.6192 0.36485 5.0858 1.0522 2.5918 1.2145 4.7348 3.6655 5.6574 6.4687 0.42691 1.2974 0.50188 1.8043 0.49935 3.387-0.0021 1.2683-0.01338 1.4232-0.15158 2.0714-0.29934 1.404-0.8993 2.8394-1.6612 3.9748-0.21567 0.32138-0.69634 0.94962-1.0679 1.3958l-0.6756 0.81072 0.01714 1.3821c0.01215 1.0036 0.03552 1.4012 0.08574 1.4513 0.09269 0.09257 0.63546-0.27871 1.3855-0.94723 2.6419-2.3548 4.0477-4.9578 4.5983-8.5161 0.14934-0.96525 0.13521-2.7594-0.0288-3.6929-0.25262-1.4376-0.60385-2.5306-1.2134-3.7765-2.0913-4.275-6.2687-7.2309-10.711-7.5783-0.49442-0.03869-1.0012-0.05599-1.5035-0.0535zm0.1022 7.1922c-0.88913-4.56e-4 -1.0212 0.01238-1.4383 0.14061-1.171 0.36002-2.2903 1.3506-2.8389 2.5138-0.26959 0.57155-0.37001 0.98624-0.40537 1.6736-0.05355 1.0412 0.19812 2.0382 0.71059 2.8183 0.29791 0.4535 1.1 1.2471 1.5823 1.5652 1.1346 0.7484 2.5157 0.98396 3.8198 0.65159 1.6596-0.42295 2.9029-1.6381 3.4171-3.3396 0.1305-0.43182 0.14884-0.58852 0.14884-1.2758 0-0.68726-0.01833-0.84328-0.14884-1.2751-0.51359-1.6995-1.7234-2.8848-3.4205-3.3499-0.38094-0.1044-0.59338-0.12234-1.4267-0.12278zm-0.12552 11.276c-2.2276 0.01145-3.8593 0.7543-4.5262 2.0755-0.33325 0.66017-0.43813 1.8001-0.33266 3.6215 0.17632 3.0448 0.90476 8.5499 1.3786 10.42 0.3453 1.3622 0.83931 2.1722 1.6338 2.6771 0.31193 0.19824 1.0112 0.4264 1.524 0.49796 0.61799 0.08623 1.6053 0.02278 2.107-0.13581 1.1148-0.35222 1.7432-1.1108 2.1338-2.5762 0.345-1.2941 0.96371-5.9095 1.2751-9.512 0.12222-1.414 0.1243-3.4285 0.0041-4.0193-0.17161-0.84362-0.45771-1.296-1.1564-1.8279-1.1266-0.85762-2.0013-1.1529-3.5879-1.2127-0.15369-0.0058-0.30487-0.0083-0.45338-0.0075z" fill="#fff" stroke-width=".99998" style="paint-order:fill markers stroke"/>
</svg>

<svg width="64" height="64" viewBox="0 0 64 64" fill="none" xmlns="http://www.w3.org/2000/svg">
<g clip-path="url(#clip0_627_207)">
<path opacity="0.01" d="M16.5144 2C8.52359 2 2 8.74092 2 16.9982V49.002C2 57.2589 8.52359 64.0002 16.5144 64.0002H47.486C55.4768 64.0002 62.0004 57.2593 62.0004 49.002V16.9982C62.0004 8.74129 55.4768 2 47.486 2H16.5144ZM17.4859 3.96876H46.5163C53.487 3.96876 59.0989 9.76742 59.0989 16.9706V46.9685C59.0989 54.1717 53.4874 59.9703 46.5163 59.9703H17.4859C10.5152 59.9703 4.90326 54.1717 4.90326 46.9685V16.9706C4.90326 9.76742 10.5148 3.96876 17.4859 3.96876Z" fill="black"/>
<path opacity="0.01" d="M16.4745 3C9.04079 3 3.00439 9.24692 3.00439 16.9377V49.0627C3.00439 56.7535 9.04079 63.0004 16.4745 63.0004H47.5285C54.9622 63.0004 61.0005 56.7535 61.0005 49.0627V16.9377C61.0005 9.24692 54.9622 3 47.5285 3H16.4745ZM17.5034 3.96875H46.4997C53.4625 3.96875 59.0673 9.76741 59.0673 16.9706V46.9685C59.0673 54.1717 53.4621 59.9703 46.4997 59.9703H17.5034C10.5406 59.9703 4.93585 54.1717 4.93585 46.9685V16.9706C4.93585 9.76741 10.541 3.96875 17.5034 3.96875Z" fill="black"/>
<path opacity="0.03" d="M16.2892 4C9.23764 4 3.53271 9.81416 3.53271 16.998V49.0018C3.53271 56.1857 9.46669 61.9998 16.5183 61.9998H47.5095C54.5611 61.9998 60.4637 56.1857 60.4637 49.0018V16.998C60.4637 9.81416 54.7565 4 47.7053 4H47.3391C54.1197 4.32699 59.486 9.97895 59.486 16.9708V46.9688C59.486 54.1719 53.7943 59.9706 46.7238 59.9706H17.2788C10.2083 59.9706 4.51662 54.1719 4.51662 46.9688V16.9708C4.51662 9.97933 9.88327 4.32769 16.6635 4H16.2892Z" fill="black"/>
<path opacity="0.03" d="M4 46.9697V49.0009C4 55.6489 9.89574 61.001 16.5441 61.001H47.5053C54.1532 61.001 60.0004 55.6489 60.0004 49.0009V47.0087C59.9792 54.1937 54.1903 59.9718 47.0003 59.9718H17.0021C9.79884 59.9718 4 54.1731 4 46.9697Z" fill="black"/>
<path opacity="0.05" d="M4 45V47.2388C4 54.566 9.94493 60.4648 16.5929 60.4648H47.4355C54.0835 60.4648 60.0001 54.5656 60.0001 47.2388V45.0431C59.9789 52.9621 54.1901 59.3304 47.0001 59.3304H17.0022C9.79904 59.3304 4 52.9391 4 45Z" fill="black"/>
<path d="M47 3.96875H17.002C9.82119 3.96875 4 9.78994 4 16.9707V46.9688C4 54.1496 9.82119 59.9707 17.002 59.9707H47C54.1808 59.9707 60.002 54.1496 60.002 46.9688V16.9707C60.002 9.78994 54.1808 3.96875 47 3.96875Z" fill="url(#paint0_linear_627_207)"/>
<path d="M32.005 11.4584C31.1536 11.4581 30.3027 11.4812 29.8945 11.5277C24.8916 12.097 20.7953 14.1647 17.2605 17.9051C14.8811 20.4226 13.2538 23.4593 12.3824 27.0083C12.0973 28.1693 12.0228 28.6773 11.955 29.9295C11.8854 31.2171 11.9571 33.4451 12.1046 34.5689C12.318 36.1974 12.9555 38.2817 13.8049 40.1285C15.376 43.5449 17.9127 46.4191 21.1946 48.5032C22.2308 49.1611 24.3375 50.2408 25.2181 50.565C25.4843 50.663 25.5316 50.6624 25.6159 50.561C25.772 50.3729 25.5671 48.6396 25.3354 48.1878C25.1865 47.8977 25.0364 47.7818 24.3915 47.46C20.8631 45.6994 18.0577 42.8475 16.2699 39.2044C15.4983 37.6321 14.9695 36.0623 14.7911 34.8126C14.59 33.4036 14.5549 31.0694 14.7082 29.2733C14.8451 27.6676 15.3092 26.0813 16.1616 24.3051C17.4554 21.6093 19.307 19.3489 21.6691 17.5798C23.9689 15.8576 26.6993 14.7092 29.3908 14.3328C30.0919 14.2348 33.1038 14.1979 34.0253 14.2759C36.1303 14.4541 37.9163 14.9848 40.0127 16.0551C43.7885 17.983 46.818 21.3304 48.4049 25.3285C49.2533 27.4662 49.476 28.8214 49.4762 31.8473C49.4764 34.2652 49.3465 35.2279 48.7999 36.8641C47.981 39.3155 46.6903 41.5247 44.9645 43.4281C43.585 44.9495 41.5289 46.5182 39.7835 47.3816C38.986 47.776 38.8361 47.9083 38.6785 48.3549C38.474 48.9345 38.3374 50.4111 38.4754 50.5491C38.59 50.6636 39.0139 50.5065 40.2457 49.8947C41.4782 49.2826 43.1488 48.31 43.9187 47.7561C47.463 45.2061 50.2748 41.1435 51.4409 36.8881C51.9224 35.1315 52.0196 34.3912 52.0623 32.1547C52.0982 30.2801 52.0279 28.906 51.8504 28.0146C51.1704 24.5997 49.859 21.6957 47.8839 19.2305C46.8637 17.957 45.5718 16.6515 44.4435 15.7544C41.4012 13.3356 38.0934 11.9821 34.1195 11.5293C33.7088 11.4825 32.8563 11.4588 32.005 11.4584ZM31.9466 18.145C30.4399 18.1525 28.9733 18.3392 27.9993 18.6656C25.9196 19.3625 23.8615 20.6621 22.3087 22.2597C20.8484 23.7619 19.8106 25.4684 19.1488 27.4551C18.677 28.8714 18.5302 30.0613 18.5822 32.0431C18.6002 32.729 18.6544 33.5313 18.705 33.8552C19.1017 36.395 20.7627 39.4833 22.736 41.3516C23.006 41.6072 23.3169 41.8773 23.4274 41.9518C23.5379 42.0262 23.8406 42.2387 24.1002 42.4237C24.3599 42.6087 24.5991 42.7514 24.6318 42.7406C24.6645 42.7297 24.7077 42.6472 24.7271 42.5574C24.7466 42.4677 24.7653 41.8275 24.769 41.1348L24.7752 39.8755L24.127 39.0929C22.7452 37.4251 21.9706 35.9895 21.5295 34.2786C20.4487 30.0869 21.9757 25.7148 25.4768 22.9766C27.1307 21.683 29.1153 20.9539 31.6304 20.7159C32.9038 20.5955 35.2496 21.0808 36.7162 21.7681C39.308 22.9826 41.451 25.4336 42.3736 28.2368C42.8005 29.5342 42.8755 30.0411 42.873 31.6238C42.8709 32.8921 42.8596 33.047 42.7214 33.6952C42.422 35.0992 41.8221 36.5346 41.0602 37.67C40.8445 37.9914 40.3638 38.6197 39.9923 39.0658L39.3167 39.8766L39.3338 41.2587C39.346 42.2623 39.3693 42.6599 39.4196 42.71C39.5122 42.8025 40.055 42.4313 40.8051 41.7627C43.447 39.4079 44.8528 36.8049 45.4034 33.2466C45.5527 32.2814 45.5386 30.4872 45.3746 29.5537C45.1219 28.1161 44.7707 27.0231 44.1612 25.7772C42.0699 21.5022 37.8925 18.5463 33.4502 18.1989C32.9557 18.1602 32.4489 18.1425 31.9466 18.145ZM32.0489 25.3372C31.1597 25.3368 31.0276 25.3496 30.6105 25.4778C29.4395 25.8379 28.3203 26.8284 27.7717 27.9916C27.5021 28.5632 27.4016 28.9779 27.3663 29.6652C27.3127 30.7064 27.5644 31.7034 28.0769 32.4835C28.3748 32.937 29.1769 33.7306 29.6592 34.0487C30.7938 34.7971 32.1749 35.0327 33.479 34.7003C35.1386 34.2774 36.3819 33.0622 36.8961 31.3607C37.0266 30.9289 37.0449 30.7722 37.0449 30.0849C37.0449 29.3977 37.0266 29.2416 36.8961 28.8098C36.3825 27.1103 35.1727 25.925 33.4756 25.4599C33.0946 25.3555 32.8822 25.3377 32.0489 25.3372ZM31.9233 36.6132C29.6957 36.6247 28.064 37.3675 27.3971 38.6887C27.0639 39.3489 26.959 40.4888 27.0645 42.3102C27.2408 45.355 27.9692 50.8601 28.4431 52.7302C28.7884 54.0924 29.2824 54.9024 30.0769 55.4073C30.3888 55.6056 31.0881 55.8337 31.6009 55.9053C32.2189 55.9915 33.2062 55.9281 33.7079 55.7695C34.8227 55.4173 35.4511 54.6587 35.8417 53.1933C36.1867 51.8992 36.8054 47.2838 37.1168 43.6813C37.239 42.2673 37.2411 40.2528 37.1209 39.662C36.9493 38.8184 36.6632 38.366 35.9645 37.8341C34.8379 36.9765 33.9632 36.6812 32.3766 36.6214C32.2229 36.6156 32.0718 36.6124 31.9233 36.6132Z" fill="white"/>
</g>
<defs>
<linearGradient id="paint0_linear_627_207" x1="32.0782" y1="57.1932" x2="32.0782" y2="7.24268" gradientUnits="userSpaceOnUse">
<stop stop-color="#5D2EC0"/>
<stop offset="1" stop-color="#4F4BF8"/>
</linearGradient>
<clipPath id="clip0_627_207">
<rect width="64" height="64" fill="white"/>
</clipPath>
</defs>
</svg>
